; generated by Slic3r 1.3.1-dev (Build 5e61412) on 2020-04-16 at 00:15:30

; external perimeters extrusion width = 0.44mm (4.29mm^3/s)
; perimeters extrusion width = 0.56mm (6.20mm^3/s)
; infill extrusion width = 0.50mm (6.40mm^3/s)
; solid infill extrusion width = 0.56mm (4.65mm^3/s)
; top infill extrusion width = 0.45mm (2.44mm^3/s)

M107
G92 E0
;D3D:START:START
T0
M104 S215 T0

G21
G90
M107
T0
G28
G29
M109 T0 S215 T0
G0 F3000
M107
T0
G92 E0
G0 X0 Y149 Z0.1 F3600
G1 Y49 E6.5 F1200
G0 Z1
G92 E0
; Filament gcode

G21 ; set units to millimeters
G90 ; use absolute coordinates
M82 ; use absolute distances for extrusion
G92 E0
G1 Z0.200 F6000.000
G1 E-2.00000 F1200.00000
G92 E0
G1 Z0.700 F6000.000
G1 X93.253 Y83.555 F6000.000
G1 Z0.200 F6000.000
G1 E2.00000 F1200.00000
G1 F1800.000
G1 X93.555 Y83.253 E2.00821
G1 X93.899 Y83.019 E2.01622
G1 X94.166 Y82.894 E2.02189
G1 X94.447 Y82.802 E2.02757
G1 X94.847 Y82.739 E2.03537
G1 X95.142 Y82.739 E2.04105
G1 X95.435 Y82.776 E2.04672
G1 X95.835 Y82.892 E2.05473
G1 X96.215 Y83.086 E2.06294
G1 X96.552 Y83.347 E2.07115
G1 X96.834 Y83.667 E2.07936
G1 X97.051 Y84.035 E2.08757
G1 X97.196 Y84.436 E2.09578
G1 X97.263 Y84.858 E2.10398
G1 X97.249 Y85.284 E2.11219
G1 X97.156 Y85.701 E2.12040
G1 X96.987 Y86.092 E2.12861
G1 X96.747 Y86.445 E2.13682
G1 X96.445 Y86.747 E2.14503
G1 X96.092 Y86.987 E2.15324
G1 X95.710 Y87.152 E2.16125
G1 X95.424 Y87.225 E2.16692
G1 X95.132 Y87.262 E2.17260
G1 X94.716 Y87.249 E2.18060
G1 X94.299 Y87.156 E2.18881
G1 X93.908 Y86.987 E2.19702
G1 X93.555 Y86.747 E2.20523
G1 X93.253 Y86.445 E2.21344
G1 X93.013 Y86.092 E2.22165
G1 X92.848 Y85.710 E2.22966
G1 X92.775 Y85.424 E2.23533
G1 X92.738 Y85.132 E2.24101
G1 X92.751 Y84.716 E2.24901
G1 X92.844 Y84.299 E2.25722
G1 X93.013 Y83.908 E2.26543
G1 X93.219 Y83.605 E2.27249
G1 X93.452 Y83.719 F6000.000
G1 F1800.000
G1 X93.719 Y83.452 E2.27976
G1 X94.027 Y83.243 E2.28691
G1 X94.261 Y83.133 E2.29189
G1 X94.507 Y83.053 E2.29686
G1 X94.867 Y82.996 E2.30389
G1 X95.126 Y82.996 E2.30886
G1 X95.383 Y83.028 E2.31384
G1 X95.740 Y83.132 E2.32099
G1 X96.076 Y83.304 E2.32826
G1 X96.375 Y83.536 E2.33554
G1 X96.625 Y83.819 E2.34281
G1 X96.818 Y84.145 E2.35009
G1 X96.946 Y84.500 E2.35736
G1 X97.005 Y84.874 E2.36463
G1 X96.993 Y85.252 E2.37191
G1 X96.911 Y85.621 E2.37918
G1 X96.760 Y85.968 E2.38646
G1 X96.548 Y86.281 E2.39373
G1 X96.281 Y86.548 E2.40100
G1 X95.968 Y86.760 E2.40828
G1 X95.627 Y86.908 E2.41543
G1 X95.376 Y86.972 E2.42041
G1 X95.120 Y87.005 E2.42538
G1 X94.748 Y86.993 E2.43253
G1 X94.379 Y86.911 E2.43980
G1 X94.032 Y86.760 E2.44708
G1 X93.719 Y86.548 E2.45435
G1 X93.452 Y86.281 E2.46163
G1 X93.240 Y85.968 E2.46890
G1 X93.092 Y85.627 E2.47605
G1 X93.028 Y85.376 E2.48103
G1 X92.995 Y85.120 E2.48600
G1 X93.007 Y84.748 E2.49315
G1 X93.089 Y84.379 E2.50043
G1 X93.240 Y84.032 E2.50770
G1 X93.418 Y83.769 E2.51382
G1 X93.651 Y83.884 F6000.000
G1 F1800.000
G1 X93.884 Y83.651 E2.52016
G1 X94.155 Y83.467 E2.52645
G1 X94.356 Y83.373 E2.53073
G1 X94.567 Y83.304 E2.53500
G1 X94.888 Y83.253 E2.54125
G1 X95.110 Y83.253 E2.54552
G1 X95.330 Y83.281 E2.54980
G1 X95.644 Y83.372 E2.55609
G1 X95.938 Y83.522 E2.56243
G1 X96.198 Y83.724 E2.56877
G1 X96.416 Y83.971 E2.57511
G1 X96.584 Y84.255 E2.58145
G1 X96.696 Y84.565 E2.58779
G1 X96.747 Y84.890 E2.59413
G1 X96.737 Y85.219 E2.60046
G1 X96.665 Y85.541 E2.60680
G1 X96.534 Y85.843 E2.61314
G1 X96.349 Y86.116 E2.61948
G1 X96.116 Y86.349 E2.62582
G1 X95.843 Y86.534 E2.63216
G1 X95.543 Y86.664 E2.63846
G1 X95.328 Y86.719 E2.64273
G1 X95.108 Y86.747 E2.64700
G1 X94.781 Y86.737 E2.65330
G1 X94.459 Y86.665 E2.65964
G1 X94.157 Y86.534 E2.66598
G1 X93.884 Y86.349 E2.67232
G1 X93.651 Y86.116 E2.67865
G1 X93.466 Y85.843 E2.68499
G1 X93.336 Y85.543 E2.69129
G1 X93.281 Y85.328 E2.69556
G1 X93.253 Y85.108 E2.69983
G1 X93.263 Y84.781 E2.70613
G1 X93.335 Y84.459 E2.71247
G1 X93.466 Y84.157 E2.71881
G1 X93.617 Y83.934 E2.72399
G1 X93.536 Y83.575 F6000.000
G1 E0.72399 F1200.00000
G92 E0
G1 Z0.700 F6000.000
G1 X94.565 Y77.224 F6000.000
G1 Z0.200 F6000.000
G1 E2.00000 F1200.00000
G1 F1800.000
G1 X94.165 Y77.108 E2.00801
G1 X93.785 Y76.914 E2.01622
G1 X93.448 Y76.653 E2.02443
G1 X93.166 Y76.333 E2.03264
G1 X92.949 Y75.965 E2.04084
G1 X92.804 Y75.564 E2.04905
G1 X92.737 Y75.142 E2.05726
G1 X92.751 Y74.716 E2.06547
G1 X92.844 Y74.299 E2.07368
G1 X93.013 Y73.908 E2.08189
G1 X93.253 Y73.555 E2.09010
G1 X93.555 Y73.253 E2.09831
G1 X93.899 Y73.019 E2.10632
G1 X94.166 Y72.894 E2.11199
G1 X94.447 Y72.802 E2.11767
G1 X94.847 Y72.739 E2.12547
G1 X95.142 Y72.739 E2.13115
G1 X95.435 Y72.776 E2.13682
G1 X95.835 Y72.892 E2.14483
G1 X96.215 Y73.086 E2.15304
G1 X96.552 Y73.347 E2.16125
G1 X96.834 Y73.667 E2.16946
G1 X97.051 Y74.035 E2.17767
G1 X97.196 Y74.436 E2.18588
G1 X97.263 Y74.858 E2.19408
G1 X97.249 Y75.284 E2.20229
G1 X97.156 Y75.701 E2.21050
G1 X96.987 Y76.092 E2.21871
G1 X96.747 Y76.445 E2.22692
G1 X96.445 Y76.747 E2.23513
G1 X96.101 Y76.981 E2.24314
G1 X95.834 Y77.106 E2.24881
G1 X95.553 Y77.198 E2.25449
G1 X95.153 Y77.261 E2.26229
G1 X94.858 Y77.261 E2.26797
G1 X94.625 Y77.232 E2.27249
G1 X94.617 Y76.972 F6000.000
G1 F1800.000
G1 X94.260 Y76.868 E2.27964
G1 X93.924 Y76.696 E2.28691
G1 X93.625 Y76.464 E2.29419
G1 X93.375 Y76.181 E2.30146
G1 X93.182 Y75.855 E2.30874
G1 X93.054 Y75.500 E2.31601
G1 X92.995 Y75.126 E2.32328
G1 X93.007 Y74.748 E2.33056
G1 X93.089 Y74.379 E2.33783
G1 X93.240 Y74.032 E2.34511
G1 X93.452 Y73.719 E2.35238
G1 X93.719 Y73.452 E2.35966
G1 X94.027 Y73.243 E2.36681
G1 X94.261 Y73.133 E2.37178
G1 X94.507 Y73.053 E2.37676
G1 X94.867 Y72.996 E2.38378
G1 X95.126 Y72.996 E2.38876
G1 X95.383 Y73.028 E2.39373
G1 X95.740 Y73.132 E2.40088
G1 X96.076 Y73.304 E2.40816
G1 X96.375 Y73.536 E2.41543
G1 X96.625 Y73.819 E2.42270
G1 X96.818 Y74.145 E2.42998
G1 X96.946 Y74.500 E2.43725
G1 X97.005 Y74.874 E2.44453
G1 X96.993 Y75.252 E2.45180
G1 X96.911 Y75.621 E2.45908
G1 X96.760 Y75.968 E2.46635
G1 X96.548 Y76.281 E2.47362
G1 X96.281 Y76.548 E2.48090
G1 X95.973 Y76.757 E2.48805
G1 X95.739 Y76.867 E2.49302
G1 X95.493 Y76.947 E2.49800
G1 X95.133 Y77.004 E2.50502
G1 X94.874 Y77.004 E2.51000
G1 X94.677 Y76.979 E2.51382
G1 X94.670 Y76.719 F6000.000
G1 F1800.000
G1 X94.356 Y76.628 E2.52011
G1 X94.062 Y76.478 E2.52645
G1 X93.802 Y76.276 E2.53279
G1 X93.584 Y76.029 E2.53913
G1 X93.416 Y75.745 E2.54547
G1 X93.304 Y75.435 E2.55181
G1 X93.253 Y75.110 E2.55815
G1 X93.263 Y74.781 E2.56449
G1 X93.335 Y74.459 E2.57083
G1 X93.466 Y74.157 E2.57717
G1 X93.651 Y73.884 E2.58351
G1 X93.884 Y73.651 E2.58984
G1 X94.155 Y73.467 E2.59614
G1 X94.356 Y73.373 E2.60041
G1 X94.567 Y73.304 E2.60469
G1 X94.888 Y73.253 E2.61093
G1 X95.110 Y73.253 E2.61521
G1 X95.330 Y73.281 E2.61948
G1 X95.644 Y73.372 E2.62578
G1 X95.938 Y73.522 E2.63211
G1 X96.198 Y73.724 E2.63845
G1 X96.416 Y73.971 E2.64479
G1 X96.584 Y74.255 E2.65113
G1 X96.696 Y74.565 E2.65747
G1 X96.747 Y74.890 E2.66381
G1 X96.737 Y75.219 E2.67015
G1 X96.665 Y75.541 E2.67649
G1 X96.534 Y75.843 E2.68283
G1 X96.349 Y76.116 E2.68917
G1 X96.116 Y76.349 E2.69551
G1 X95.845 Y76.533 E2.70180
G1 X95.644 Y76.627 E2.70608
G1 X95.433 Y76.696 E2.71035
G1 X95.112 Y76.747 E2.71660
G1 X94.729 Y76.727 E2.72398
G1 X94.451 Y76.962 F6000.000
G1 E0.72398 F1200.00000
G92 E0
G1 Z0.700 F6000.000
G1 X94.858 Y67.261 F6000.000
G1 Z0.200 F6000.000
G1 E2.00000 F1200.00000
G1 F1800.000
G1 X94.565 Y67.224 E2.00567
G1 X94.165 Y67.108 E2.01368
G1 X93.785 Y66.914 E2.02189
G1 X93.448 Y66.653 E2.03010
G1 X93.166 Y66.333 E2.03831
G1 X92.949 Y65.965 E2.04652
G1 X92.804 Y65.564 E2.05473
G1 X92.737 Y65.142 E2.06294
G1 X92.751 Y64.716 E2.07114
G1 X92.844 Y64.299 E2.07935
G1 X93.013 Y63.908 E2.08756
G1 X93.253 Y63.555 E2.09577
G1 X93.555 Y63.253 E2.10398
G1 X93.908 Y63.013 E2.11219
G1 X94.290 Y62.848 E2.12020
G1 X94.576 Y62.775 E2.12588
G1 X94.868 Y62.738 E2.13155
G1 X95.284 Y62.751 E2.13956
G1 X95.701 Y62.844 E2.14777
G1 X96.092 Y63.013 E2.15598
G1 X96.445 Y63.253 E2.16419
G1 X96.747 Y63.555 E2.17239
G1 X96.987 Y63.908 E2.18060
G1 X97.152 Y64.290 E2.18861
G1 X97.225 Y64.576 E2.19429
G1 X97.262 Y64.868 E2.19996
G1 X97.249 Y65.284 E2.20797
G1 X97.156 Y65.701 E2.21618
G1 X96.987 Y66.092 E2.22439
G1 X96.747 Y66.445 E2.23260
G1 X96.445 Y66.747 E2.24080
G1 X96.101 Y66.981 E2.24881
G1 X95.834 Y67.106 E2.25449
G1 X95.553 Y67.198 E2.26016
G1 X95.153 Y67.261 E2.26797
G1 X94.918 Y67.261 E2.27249
G1 X94.874 Y67.004 F6000.000
G1 F1800.000
G1 X94.617 Y66.972 E2.27746
G1 X94.260 Y66.868 E2.28461
G1 X93.924 Y66.696 E2.29189
G1 X93.625 Y66.464 E2.29916
G1 X93.375 Y66.181 E2.30644
G1 X93.182 Y65.855 E2.31371
G1 X93.054 Y65.500 E2.32098
G1 X92.995 Y65.126 E2.32826
G1 X93.007 Y64.748 E2.33553
G1 X93.089 Y64.379 E2.34281
G1 X93.240 Y64.032 E2.35008
G1 X93.452 Y63.719 E2.35736
G1 X93.719 Y63.452 E2.36463
G1 X94.032 Y63.240 E2.37190
G1 X94.373 Y63.092 E2.37905
G1 X94.624 Y63.028 E2.38403
G1 X94.880 Y62.995 E2.38900
G1 X95.252 Y63.007 E2.39615
G1 X95.621 Y63.089 E2.40343
G1 X95.968 Y63.240 E2.41070
G1 X96.281 Y63.452 E2.41798
G1 X96.548 Y63.719 E2.42525
G1 X96.760 Y64.032 E2.43253
G1 X96.908 Y64.373 E2.43968
G1 X96.972 Y64.624 E2.44465
G1 X97.005 Y64.880 E2.44963
G1 X96.993 Y65.252 E2.45677
G1 X96.911 Y65.621 E2.46405
G1 X96.760 Y65.968 E2.47132
G1 X96.548 Y66.281 E2.47860
G1 X96.281 Y66.548 E2.48587
G1 X95.973 Y66.757 E2.49302
G1 X95.739 Y66.867 E2.49800
G1 X95.493 Y66.947 E2.50297
G1 X95.133 Y67.004 E2.51000
G1 X94.934 Y67.004 E2.51382
G1 X94.890 Y66.747 F6000.000
G1 F1800.000
G1 X94.670 Y66.719 E2.51809
G1 X94.356 Y66.628 E2.52439
G1 X94.062 Y66.478 E2.53073
G1 X93.802 Y66.276 E2.53707
G1 X93.584 Y66.029 E2.54340
G1 X93.416 Y65.745 E2.54974
G1 X93.304 Y65.435 E2.55608
G1 X93.253 Y65.110 E2.56242
G1 X93.263 Y64.781 E2.56876
G1 X93.335 Y64.459 E2.57510
G1 X93.466 Y64.157 E2.58144
G1 X93.651 Y63.884 E2.58778
G1 X93.884 Y63.651 E2.59412
G1 X94.157 Y63.466 E2.60046
G1 X94.457 Y63.336 E2.60675
G1 X94.672 Y63.281 E2.61103
G1 X94.892 Y63.253 E2.61530
G1 X95.219 Y63.263 E2.62159
G1 X95.541 Y63.335 E2.62793
G1 X95.843 Y63.466 E2.63427
G1 X96.116 Y63.651 E2.64061
G1 X96.349 Y63.884 E2.64695
G1 X96.534 Y64.157 E2.65329
G1 X96.664 Y64.457 E2.65958
G1 X96.719 Y64.672 E2.66386
G1 X96.747 Y64.892 E2.66813
G1 X96.737 Y65.219 E2.67442
G1 X96.665 Y65.541 E2.68076
G1 X96.534 Y65.843 E2.68710
G1 X96.349 Y66.116 E2.69344
G1 X96.116 Y66.349 E2.69978
G1 X95.845 Y66.533 E2.70608
G1 X95.644 Y66.627 E2.71035
G1 X95.433 Y66.696 E2.71462
G1 X95.112 Y66.747 E2.72087
G1 X94.950 Y66.747 E2.72399
G1 X94.769 Y66.933 F6000.000
G1 E0.72399 F1200.00000
G92 E0
G1 Z0.700 F6000.000
G1 X78.522 Y78.086 F6000.000
G1 Z0.200 F6000.000
G1 E2.00000 F1200.00000
G1 F1800.000
G1 X78.522 Y82.114 E2.07750
G1 X71.478 Y82.114 E2.21302
G1 X71.478 Y78.086 E2.29052
G1 X78.462 Y78.086 E2.42488
G1 X78.265 Y78.343 F6000.000
G1 F1800.000
G1 X78.265 Y81.857 E2.49249
G1 X71.735 Y81.857 E2.61812
G1 X71.735 Y78.343 E2.68572
G1 X78.205 Y78.343 E2.81020
G1 X78.008 Y78.600 F6000.000
G1 F1800.000
G1 X78.008 Y81.600 E2.86791
G1 X71.992 Y81.600 E2.98365
G1 X71.992 Y78.600 E3.04136
G1 X77.948 Y78.600 E3.15594
G1 X78.403 Y78.539 F6000.000
G1 E1.15594 F1200.00000
G92 E0
G1 Z0.700 F6000.000
G1 X57.196 Y84.436 F6000.000
G1 Z0.200 F6000.000
G1 E2.00000 F1200.00000
G1 F1800.000
G1 X57.263 Y84.858 E2.00821
G1 X57.249 Y85.284 E2.01642
G1 X57.156 Y85.701 E2.02463
G1 X56.987 Y86.092 E2.03284
G1 X56.747 Y86.445 E2.04105
G1 X56.445 Y86.747 E2.04925
G1 X56.092 Y86.987 E2.05746
G1 X55.710 Y87.152 E2.06547
G1 X55.424 Y87.225 E2.07115
G1 X55.132 Y87.262 E2.07682
G1 X54.716 Y87.249 E2.08483
G1 X54.299 Y87.156 E2.09304
G1 X53.908 Y86.987 E2.10125
G1 X53.555 Y86.747 E2.10946
G1 X53.253 Y86.445 E2.11767
G1 X53.013 Y86.092 E2.12588
G1 X52.848 Y85.710 E2.13388
G1 X52.775 Y85.424 E2.13956
G1 X52.738 Y85.132 E2.14523
G1 X52.751 Y84.716 E2.15324
G1 X52.844 Y84.299 E2.16145
G1 X53.013 Y83.908 E2.16966
G1 X53.253 Y83.555 E2.17787
G1 X53.555 Y83.253 E2.18608
G1 X53.899 Y83.019 E2.19408
G1 X54.166 Y82.894 E2.19976
G1 X54.447 Y82.802 E2.20543
G1 X54.847 Y82.739 E2.21324
G1 X55.142 Y82.739 E2.21892
G1 X55.435 Y82.776 E2.22459
G1 X55.835 Y82.892 E2.23260
G1 X56.215 Y83.086 E2.24081
G1 X56.552 Y83.347 E2.24902
G1 X56.834 Y83.667 E2.25723
G1 X57.051 Y84.035 E2.26543
G1 X57.176 Y84.380 E2.27249
G1 X56.946 Y84.500 F6000.000
G1 F1800.000
G1 X57.005 Y84.874 E2.27976
G1 X56.993 Y85.252 E2.28704
G1 X56.911 Y85.621 E2.29431
G1 X56.760 Y85.968 E2.30159
G1 X56.548 Y86.281 E2.30886
G1 X56.281 Y86.548 E2.31613
G1 X55.968 Y86.760 E2.32341
G1 X55.627 Y86.908 E2.33056
G1 X55.376 Y86.972 E2.33553
G1 X55.120 Y87.005 E2.34051
G1 X54.748 Y86.993 E2.34766
G1 X54.379 Y86.911 E2.35493
G1 X54.032 Y86.760 E2.36221
G1 X53.719 Y86.548 E2.36948
G1 X53.452 Y86.281 E2.37676
G1 X53.240 Y85.968 E2.38403
G1 X53.092 Y85.627 E2.39118
G1 X53.028 Y85.376 E2.39616
G1 X52.995 Y85.120 E2.40113
G1 X53.007 Y84.748 E2.40828
G1 X53.089 Y84.379 E2.41555
G1 X53.240 Y84.032 E2.42283
G1 X53.452 Y83.719 E2.43010
G1 X53.719 Y83.452 E2.43738
G1 X54.027 Y83.243 E2.44453
G1 X54.261 Y83.133 E2.44950
G1 X54.507 Y83.053 E2.45448
G1 X54.867 Y82.996 E2.46150
G1 X55.126 Y82.996 E2.46648
G1 X55.383 Y83.028 E2.47145
G1 X55.740 Y83.132 E2.47860
G1 X56.076 Y83.304 E2.48588
G1 X56.375 Y83.536 E2.49315
G1 X56.625 Y83.819 E2.50043
G1 X56.818 Y84.145 E2.50770
G1 X56.925 Y84.444 E2.51382
G1 X56.696 Y84.565 F6000.000
G1 F1800.000
G1 X56.747 Y84.890 E2.52016
G1 X56.737 Y85.219 E2.52650
G1 X56.665 Y85.541 E2.53284
G1 X56.534 Y85.843 E2.53918
G1 X56.349 Y86.116 E2.54552
G1 X56.116 Y86.349 E2.55185
G1 X55.843 Y86.534 E2.55819
G1 X55.543 Y86.664 E2.56449
G1 X55.328 Y86.719 E2.56876
G1 X55.108 Y86.747 E2.57304
G1 X54.781 Y86.737 E2.57933
G1 X54.459 Y86.665 E2.58567
G1 X54.157 Y86.534 E2.59201
G1 X53.884 Y86.349 E2.59835
G1 X53.651 Y86.116 E2.60469
G1 X53.466 Y85.843 E2.61103
G1 X53.336 Y85.543 E2.61732
G1 X53.281 Y85.328 E2.62159
G1 X53.253 Y85.108 E2.62587
G1 X53.263 Y84.781 E2.63216
G1 X53.335 Y84.459 E2.63850
G1 X53.466 Y84.157 E2.64484
G1 X53.651 Y83.884 E2.65118
G1 X53.884 Y83.651 E2.65752
G1 X54.155 Y83.467 E2.66381
G1 X54.356 Y83.373 E2.66809
G1 X54.567 Y83.304 E2.67236
G1 X54.888 Y83.253 E2.67861
G1 X55.110 Y83.253 E2.68288
G1 X55.330 Y83.281 E2.68716
G1 X55.644 Y83.372 E2.69345
G1 X55.938 Y83.522 E2.69979
G1 X56.198 Y83.724 E2.70613
G1 X56.416 Y83.971 E2.71247
G1 X56.584 Y84.255 E2.71881
G1 X56.675 Y84.508 E2.72399
G1 X57.013 Y84.653 F6000.000
G1 E0.72399 F1200.00000
G92 E0
G1 Z0.700 F6000.000
G1 X55.553 Y77.198 F6000.000
G1 Z0.200 F6000.000
G1 E2.00000 F1200.00000
G1 F1800.000
G1 X55.153 Y77.261 E2.00780
G1 X54.858 Y77.261 E2.01348
G1 X54.565 Y77.224 E2.01916
G1 X54.165 Y77.108 E2.02716
G1 X53.785 Y76.914 E2.03537
G1 X53.448 Y76.653 E2.04358
G1 X53.166 Y76.333 E2.05179
G1 X52.949 Y75.965 E2.06000
G1 X52.804 Y75.564 E2.06821
G1 X52.737 Y75.142 E2.07642
G1 X52.751 Y74.716 E2.08463
G1 X52.844 Y74.299 E2.09284
G1 X53.013 Y73.908 E2.10105
G1 X53.253 Y73.555 E2.10926
G1 X53.555 Y73.253 E2.11746
G1 X53.899 Y73.019 E2.12547
G1 X54.166 Y72.894 E2.13115
G1 X54.447 Y72.802 E2.13682
G1 X54.847 Y72.739 E2.14463
G1 X55.142 Y72.739 E2.15030
G1 X55.435 Y72.776 E2.15598
G1 X55.835 Y72.892 E2.16398
G1 X56.215 Y73.086 E2.17219
G1 X56.552 Y73.347 E2.18040
G1 X56.834 Y73.667 E2.18861
G1 X57.051 Y74.035 E2.19682
G1 X57.196 Y74.436 E2.20503
G1 X57.263 Y74.858 E2.21324
G1 X57.249 Y75.284 E2.22145
G1 X57.156 Y75.701 E2.22966
G1 X56.987 Y76.092 E2.23787
G1 X56.747 Y76.445 E2.24608
G1 X56.445 Y76.747 E2.25429
G1 X56.101 Y76.981 E2.26229
G1 X55.834 Y77.106 E2.26797
G1 X55.610 Y77.179 E2.27249
G1 X55.493 Y76.947 F6000.000
G1 F1800.000
G1 X55.133 Y77.004 E2.27951
G1 X54.874 Y77.004 E2.28449
G1 X54.617 Y76.972 E2.28946
G1 X54.260 Y76.868 E2.29661
G1 X53.924 Y76.696 E2.30389
G1 X53.625 Y76.464 E2.31116
G1 X53.375 Y76.181 E2.31844
G1 X53.182 Y75.855 E2.32571
G1 X53.054 Y75.500 E2.33299
G1 X52.995 Y75.126 E2.34026
G1 X53.007 Y74.748 E2.34753
G1 X53.089 Y74.379 E2.35481
G1 X53.240 Y74.032 E2.36208
G1 X53.452 Y73.719 E2.36936
G1 X53.719 Y73.452 E2.37663
G1 X54.027 Y73.243 E2.38378
G1 X54.261 Y73.133 E2.38876
G1 X54.507 Y73.053 E2.39373
